!!!COM:	Bach, Johann Sebastian
!!!OMV:	Wie sch&ouml;n leuchtet der Morgenstern
!!!OTL:	Wie sch&ouml;n leuchtet der Morgenstern
**kern	**fb	**kern	**kern	**kern	**kern
*part5	*part5	*part4	*part3	*part2	*part1
*staff5	*	*staff4	*staff3	*staff2	*staff1
*I"Continuo	*	*I"Voice	*I"Voice	*I"Voice	*I"Voice
*I'Cont.	*	*I'V	*I'V	*I'V	*I'V
*clefF4	*	*clefF4	*clefGv2	*clefG2	*clefG2
*Trd0c0	*	*	*	*	*
*k[f#c#]	*	*k[f#c#]	*k[f#c#]	*k[f#c#]	*k[f#c#]
*M4/4	*	*M4/4	*M4/4	*M4/4	*M4/4
4D	.	4D	4F#	4A	4d
=2	=2	=2	=2	=2	=2
4C#	.	4C#	4E	4A	4a
8DL	.	8DL	8DL	4A	8f#L
8C#J	.	8C#J	8EJ	.	8eJ
4BB	5	4BB	8F#L	4B	4d
.	#6\	.	8G#XJ	.	.
8F#L	5	8F#L	4A	4c#	4a
8EJ	.	8EJ	.	.	.
=3	=3	=3	=3	=3	=3
4D	6 5	8DL	4A	4f#	8.b
.	.	8BBJ	.	.	.
.	.	.	.	.	32cc#LLL
.	.	.	.	.	32ddJJJ
4E	#	4E	4G#X	4e	4b
4AA;	.	4AA;	4c#;	4e;	4a;
4D	.	4D	4d	4f#	4a
=4	=4	=4	=4	=4	=4
4G	.	4G	4d	4g	4b
8F#L	7 4 2	8F#L	4e	4g	4cc#
8EJ	.	8EJ	.	.	.
8F#L	6	8F#L	8AL	4f#	4dd
8G#XJ	.	8G#XJ	8BJ	.	.
4A	.	4A	4c#	8eL	4cc#
.	.	.	.	8aJ	.
=5	=5	=5	=5	=5	=5
4D	6 5	4D	8F#L	4a	8bL
.	.	.	8f#J	.	8ddJ
4E	#	4E	8eL	4g#X	8cc#L
.	.	.	8dJ	.	8bJ
4AA;	.	4AA;	4c#;	4e;	4a;
4D	.	4D	4A	4d	4f#
=6	=6	=6	=6	=6	=6
4G	.	4Gn	4Gn	4d	4b
4F#	6	4F#	4A	4d	4a
4E	7	4E	8BL	8dL	4g
.	6	.	8GJ	8c#J	.
4D	.	4D	4A	4d	4f#
=	=	=	=	=	=
!!linebreak:original
2AA	4	2AA	4.A	4d	2e
.	3	.	.	4c#	.
.	.	.	8G	.	.
4D;	.	4D;	4F#;	4A;	4d;
=7:|!	=7:|!	=7:|!	=7:|!	=7:|!	=7:|!
4r	.	4r	4r	4r	4r
=8	=8	=8	=8	=8	=8
2C#	6	2C#	2A	2e	2a
2D;	.	2D;	2A;	2d;	2f#;
=9	=9	=9	=9	=9	=9
2AA	.	2AA	2c#	2e	2a
2D;	.	2D;	2A;	2d;	2f#;
=10	=10	=10	=10	=10	=10
8DL	.	8DL	4A	4d	4f#
8EJ	.	8EJ	.	.	.
8F#L	.	8F#L	4A	4d	4f#
8GJ	.	8GJ	.	.	.
8AL	.	8AL	4A	4c#	4e
8BJ	.	8BJ	.	.	.
8AL	.	8AL	4A	4c#	4e
8GJ	.	8GJ	.	.	.
=11	=11	=11	=11	=11	=11
8F#L	6	8F#L	4A	4d	4f#
8EJ	.	8EJ	.	.	.
8F#L	.	8F#L	4A	4d	4f#
8DJ	.	8DJ	.	.	.
8AAL	.	8AAL	4A	4c#	4e
8AJ	.	8AJ	.	.	.
8GL	7 #5\ 2	8GL	4A	4d#X	4f#
8F#J	.	8F#J	.	.	.
=12	=12	=12	=12	=12	=12
4E	5	4E	8BL	4e	4g
.	6	.	8c#J	.	.
8BL	5 3	8BL	4d	8dnL	4f#
8AJ	.	8AJ	.	8c#J	.
4G	6 5	4G	8d	4B	2e
.	.	.	16c#LL	.	.
.	.	.	16BJJ	.	.
4A	.	4A	8AL	4c#	.
.	.	.	8GJ	.	.
=13	=13	=13	=13	=13	=13
!!pagebreak:original
2D;	.	2D;	2F#;	2A;	2d;
4BB	5	4BB	8F#L	4f#	4dd
.	#6\	.	8G#XJ	.	.
4FF#	8 #	4FF#	4A#X	8f#L	4cc#
.	7	.	.	8eJ	.
=14	=14	=14	=14	=14	=14
4GG	5	4GG	4B	8dL	4b
.	6	.	.	8eJ	.
4AA	6	4AA	4c#	4f#	4a
8BBL	6 5	8BBL	8dL	8f#L	4g
8C#J	6 5	8C#J	8eJ	8eJ	.
4D	9	4D	4A	8eL	4f#
.	8	.	.	8dJ	.
=15	=15	=15	=15	=15	=15
4GG	6 5	4GG	4B	8d	2e
.	.	.	.	16c#LL	.
.	.	.	.	16BJJ	.
4AA	.	4AA	8AL	4c#	.
.	.	.	8GJ	.	.
4DD;	.	4D;	4F#;	4A;	4d;
=||	=||	=||	=||	=||	=||
*-	*-	*-	*-	*-	*-
!!!system-decoration: s1,s2,s3,s4,s5
